icons/image-3.svg

<svg fill="none" viewBox="0 0 24 24"><path fill="currentColor" d="M2.9 19a1 1 0 1 0 1.4 1.5zm5.5-4 .7-.7a1 1 0 0 0-1.4 0zm2.4 2.4-.7.7a1 1 0 0 0 1.4 0zm5.4-5.4.7-.7a1 1 0 0 0-1.4 0zm4 5.5a1 1 0 0 0 1.5-1.4zm-15.9 3 4.8-4.8-1.4-1.4-4.8 4.8zm3.4-4.8 2.4 2.4 1.4-1.4-2.4-2.4zm3.8 2.4 5.4-5.4-1.4-1.4-5.4 5.4zm4-5.4 4.8 4.8 1.4-1.4-4.8-4.8zm-9.5-9.3h12v-2h-12zm14.6 2.6v12h2v-12zm-2.6 14.6h-12v2h12zm-14.6-2.6v-12h-2v12zm2.6 2.6a2.6 2.6 0 0 1-2.6-2.6h-2a4.6 4.6 0 0 0 4.6 4.6zm14.6-2.6a2.6 2.6 0 0 1-2.6 2.6v2a4.6 4.6 0 0 0 4.6-4.6zm-2.6-14.6a2.6 2.6 0 0 1 2.6 2.6h2a4.6 4.6 0 0 0-4.6-4.6zm-12-2a4.6 4.6 0 0 0-4.6 4.6h2a2.6 2.6 0 0 1 2.6-2.6zm2.6 6.4a1 1 0 0 1-.8.8v2a3 3 0 0 0 2.8-2.8zm-.8.8a1 1 0 0 1-.8-.8h-2a3 3 0 0 0 2.8 2.8zm-.8-.8a1 1 0 0 1 .8-.8v-2a3 3 0 0 0-2.8 2.8zm.8-.8a1 1 0 0 1 .8.8h2a3 3 0 0 0-2.8-2.8z"/></svg>

<svg fill="none" viewBox="0 0 24 24"><path fill="currentColor" d="M2.9 19a1 1 0 1 0 1.4 1.5zm5.5-4 .7-.7a1 1 0 0 0-1.4 0zm2.4 2.4-.7.7a1 1 0 0 0 1.4 0zm5.4-5.4.7-.7a1 1 0 0 0-1.4 0zm4 5.5a1 1 0 0 0 1.5-1.4zm-15.9 3 4.8-4.8-1.4-1.4L2.9 19zm3.4-4.8 2.4 2.4 1.4-1.4-2.4-2.4zm3.8 2.4 5.4-5.4-1.4-1.4-5.4 5.4zm4-5.4 4.8 4.8 1.4-1.4-4.8-4.8zM6 3.4h12v-2H6zM20.6 6v12h2V6zM18 20.6H6v2h12zM3.4 18V6h-2v12zM6 20.6A2.6 2.6 0 0 1 3.4 18h-2A4.6 4.6 0 0 0 6 22.6zM20.6 18a2.6 2.6 0 0 1-2.6 2.6v2a4.6 4.6 0 0 0 4.6-4.6zM18 3.4A2.6 2.6 0 0 1 20.6 6h2A4.6 4.6 0 0 0 18 1.4zm-12-2A4.6 4.6 0 0 0 1.4 6h2A2.6 2.6 0 0 1 6 3.4zm2.6 6.4a1 1 0 0 1-.8.8v2a3 3 0 0 0 2.8-2.8zm-.8.8a1 1 0 0 1-.8-.8H5a3 3 0 0 0 2.8 2.8zM7 7.8a1 1 0 0 1 .8-.8V5A3 3 0 0 0 5 7.8zm.8-.8a1 1 0 0 1 .8.8h2A3 3 0 0 0 7.8 5z"/></svg>
